src/lib/packages/icons/src/assets/filled/folder-download.svg

<svg width="24" height="24" viewBox="0 0 24 24" fill="none" xmlns="http://www.w3.org/2000/svg">
<path d="M18 7H13L10 4H6C4 4 3 5 3 7V17C3 19 4 20 6 20H18C20 20 21 19 21 17V10C21 8 20 7 18 7ZM12.03 14.53L10.03 16.53C9.96103 16.599 9.87789 16.654 9.78589 16.692C9.69389 16.73 9.59702 16.75 9.49902 16.75C9.40102 16.75 9.30391 16.73 9.21191 16.692C9.11991 16.654 9.03702 16.599 8.96802 16.53L6.96802 14.53C6.67502 14.237 6.67502 13.762 6.96802 13.469C7.26102 13.176 7.73605 13.176 8.02905 13.469L8.74902 14.189V11C8.74902 10.586 9.08502 10.25 9.49902 10.25C9.91302 10.25 10.249 10.586 10.249 11V14.189L10.969 13.469C11.262 13.176 11.737 13.176 12.03 13.469C12.323 13.762 12.323 14.238 12.03 14.53Z" fill="currentColor"/>
</svg>

<svg xmlns="http://www.w3.org/2000/svg" width="24" height="24" fill="none"><path fill="currentColor" d="M18 7h-5l-3-3H6C4 4 3 5 3 7v10c0 2 1 3 3 3h12c2 0 3-1 3-3v-7c0-2-1-3-3-3Zm-5.97 7.53-2 2a.75.75 0 0 1-.818.162.748.748 0 0 1-.244-.162l-2-2a.75.75 0 1 1 1.061-1.061l.72.72V11a.75.75 0 0 1 1.5 0v3.189l.72-.72a.75.75 0 1 1 1.061 1.061Z"/></svg>
